src/img/icons/icon-heart-color.svg

<?xml version="1.0" encoding="UTF-8"?>
<svg width="27px" height="25px" viewBox="0 0 27 25" version="1.1" xmlns="http://www.w3.org/2000/svg" xmlns:xlink="http://www.w3.org/1999/xlink">
    <!-- Generator: sketchtool 53.2 (72643) - https://sketchapp.com -->
    <title>3F75FA83-ABD9-4FDD-AE6D-3F98D071B72F</title>
    <desc>Created with sketchtool.</desc>
    <defs>
        <linearGradient x1="100%" y1="7.13305898%" x2="2.81409439%" y2="90.4543087%" id="linearGradient-1">
            <stop stop-color="#9C5EFF" offset="0%"></stop>
            <stop stop-color="#4489FF" offset="100%"></stop>
        </linearGradient>
    </defs>
    <g id="Symbols" stroke="none" stroke-width="1" fill="none" fill-rule="evenodd">
        <g id="Elements/Cart" transform="translate(-30.000000, -86.000000)" fill="url(#linearGradient-1)">
            <g id="Group">
                <g id="icon/ico-heart" transform="translate(30.000000, 86.000000)">
                    <path d="M7.41584536,0.00301720733 C9.80637227,0.0554665354 11.7621645,1.05943586 13.3366646,2.89622407 C13.3592749,2.92276725 13.3833241,2.94846105 13.4028512,2.97734003 C13.4741764,3.08372511 13.5331688,3.06355229 13.606344,2.97224374 C14.1187759,2.33435799 14.714455,1.79032892 15.3835147,1.33463557 C16.2449677,0.747500382 17.1806237,0.346167467 18.1970601,0.145501009 C19.0613907,-0.025437084 19.9306546,-0.0543160662 20.794163,0.104730682 C23.1999005,0.547470961 25.0056425,1.86762267 26.1174533,4.12973883 C26.8687324,5.65777674 27.1102517,7.29687133 26.9554738,8.99860783 C26.8489998,10.1652338 26.4695576,11.2481956 25.9758305,12.2918735 C25.2761441,13.7706473 24.3540543,15.095683 23.3304237,16.3500076 C21.9199512,18.0778626 20.3355848,19.6224634 18.6685879,21.0795779 C17.0811383,22.4670432 15.4215412,23.7549184 13.6823969,24.933648 C13.5442684,25.0272923 13.4525938,25.0183738 13.3193985,24.9285517 C11.2515825,23.5362025 9.30545103,21.9786486 7.45489954,20.2945368 C5.99673979,18.9673777 4.61956607,17.5557051 3.3893594,15.9968771 C2.55072227,14.9343004 1.78937131,13.8173633 1.17580959,12.5989251 C0.702842911,11.6599334 0.330800459,10.6801715 0.134501817,9.63798 C0.00315644327,8.94063752 -0.0284979974,8.23522591 0.0243279198,7.52556739 C0.0750983538,6.84393847 0.171706062,6.17037868 0.357932836,5.51423121 C0.77375708,4.05032163 1.51208663,2.79493528 2.64054688,1.79733632 C3.44341861,1.08746546 4.35893081,0.592063507 5.37248955,0.292444066 C6.03867164,0.0955998268 6.72109205,0.00301720733 7.41584536,0.00301720733" id="Fill-1"></path>
                </g>
            </g>
        </g>
    </g>
</svg>

<svg width="27" height="25" xmlns="http://www.w3.org/2000/svg"><defs><linearGradient x1="100%" y1="7.133%" x2="2.814%" y2="90.454%" id="a"><stop stop-color="#9C5EFF" offset="0%"/><stop stop-color="#4489FF" offset="100%"/></linearGradient></defs><path d="M7.416.003c2.39.052 4.346 1.056 5.92 2.893.023.027.047.052.067.081.071.107.13.087.203-.005a8.152 8.152 0 0 1 1.778-1.637 7.548 7.548 0 0 1 2.813-1.19c.864-.17 1.734-.2 2.597-.04 2.406.442 4.212 1.763 5.323 4.025.752 1.528.993 3.167.838 4.869-.106 1.166-.485 2.25-.98 3.293-.699 1.479-1.62 2.804-2.645 4.058-1.41 1.728-2.994 3.272-4.661 4.73a51.376 51.376 0 0 1-4.987 3.854c-.138.093-.23.084-.363-.005a51.281 51.281 0 0 1-5.864-4.634c-1.458-1.328-2.835-2.74-4.066-4.298-.838-1.063-1.6-2.18-2.213-3.398C.703 11.659.33 10.68.135 9.638a8.116 8.116 0 0 1-.11-2.112c.05-.682.147-1.356.333-2.012.416-1.464 1.154-2.72 2.283-3.717A7.12 7.12 0 0 1 5.372.292 7.175 7.175 0 0 1 7.416.003" fill="url(#a)" fill-rule="evenodd"/></svg>
